X:1
T:Title
%%score { ( 1 3 5 ) | ( 2 4 ) }
L:1/8
M:4/4
K:G
V:1 treble nm="Grand Piano"
V:3 treble 
V:5 treble 
V:2 bass 
V:4 bass 
V:1
 z4 z[Q:1/4=100] DDG | B6[K:bass][K:treble] z2 | E6[K:bass][K:treble] z2 | %3
 A6[K:bass][K:treble] z2 | A6 z2 | B6[K:bass][K:treble] z2 | c6[K:bass][K:treble] z2 | %7
 B6[K:bass][K:treble] z2 |[M:5/8] [B,DG]-[B,DG]- [B,DG]3 |[M:3/8] ddB |[M:4/4] e6 z2 | c6 z2 | %12
 d6 z2 | B6[K:bass][K:treble] z2 | B6[K:bass][K:treble] z2 | c6[K:bass][K:treble] z2 | %16
 B6[K:bass][K:treble] z2 |[M:11/16] G/-G/-G/-G/-G/-G/-G/-G-<G |] %18
V:2
 z4 z B,B,B, | D6 z2 | C2 z2 z4 | ^C6 z2 | C[D,F,][D,A,][D,G,] [D,F,]CB,B, | D6[K:treble] z2 | %6
 E6[K:bass] z2 | D4 z4 |[M:5/8] G,,-G,,- G,,3 |[M:3/8][K:treble] BBG | %10
[M:4/4] c6[K:bass][K:treble] z2 | A6[K:bass][K:treble] z2 | F6[K:bass][K:treble] z2 | %13
 D6[K:bass] z2 | D6[K:treble] z2 | E6[K:bass] z2 | D4 z4 |[M:11/16] G,,-<G,,G,,-<G,,G,,3/2 |] %18
V:3
 x8 | z[K:bass] D,B,A, G,[K:treble]BcB | z[K:bass] E, z B, A,E[K:treble]^DE | %3
 z[K:bass] E,B,A, G,E[K:treble]FG | z DFE DDDG | z[K:bass] D,B,A, G,[K:treble]BAB | %6
 z[K:bass] E,CB, A,E[K:treble]FG | z[K:bass] D,G,B,[K:treble] [DG][EFc][DFB][CDA] |[M:5/8] x5 | %9
[M:3/8] x3 |[M:4/4] z G,G,G, G,d^cd | z DDD DcBc | z A,A,A, A,cA_B | %13
 z[K:bass] G,G,G, G,D[K:treble]DG | z[K:bass] D,B,A, G,[K:treble]BAB | %15
 z[K:bass] E,CB, A,E[K:treble]FG | z[K:bass] D,G,B,[K:treble] [DG][EFc][DFB][CDA] | %17
[M:11/16] [B,D]-<[B,D][_B,^C]-<[B,C][=B,D]3/2 |] %18
V:4
 x8 | z G,,G,,G,, G,,DED | z C,C,C, C,CCC | z A,,A,,A,, A,,^CCC | x8 | %5
 z G,,G,,G,, G,,[K:treble]GF=F | z[K:bass] C,C,C, C,CD^D | z2 D,D, D,D,D,D, |[M:5/8] x5 | %9
[M:3/8][K:treble] x3 |[M:4/4] z[K:bass] G,,B,,D, z[K:treble] B_B=B | %11
 z[K:bass] D,F,A, D,[K:treble]A^GA | z[K:bass] D, .F,2 D,[K:treble]AFE | %13
 z[K:bass] G,,B,,D, G,,B,B,B, | z G,,G,,G,, G,,[K:treble]GF=F | z[K:bass] C,C,C, C,CD^D | %16
 z2 D,D, D,D,D,D, |[M:11/16] x11/2 |] %18
V:5
 x8 | x[K:bass] x4[K:treble] x3 | z2[K:bass] C4[K:treble] z2 | x[K:bass] x5[K:treble] x2 | x8 | %5
 x[K:bass] x4[K:treble] x3 | x[K:bass] x5[K:treble] x2 | x[K:bass] x3[K:treble] x4 |[M:5/8] x5 | %9
[M:3/8] x3 |[M:4/4] x8 | x8 | x8 | x[K:bass] x5[K:treble] x2 | x[K:bass] x4[K:treble] x3 | %15
 x[K:bass] x5[K:treble] x2 | x[K:bass] x3[K:treble] x4 |[M:11/16] x11/2 |] %18

